assets/img/base/logo-youtube.svg

<svg width="30" height="21" viewBox="0 0 30 21" fill="none" xmlns="http://www.w3.org/2000/svg">
<path d="M29.1159 4.52643C29.1159 2.12415 27.3826 0.191648 25.2409 0.191648C22.3398 0.0533838 19.3812 0 16.3576 0H15.415C12.3988 0 9.43491 0.0533839 6.53387 0.192182C4.39736 0.192182 2.66407 2.13536 2.66407 4.53764C2.53315 6.43757 2.47765 8.33804 2.48079 10.2385C2.47555 12.139 2.5349 14.0412 2.65883 15.9453C2.65883 18.3475 4.39212 20.296 6.52863 20.296C9.5763 20.4402 12.7025 20.5042 15.8811 20.4989C19.0649 20.5096 22.1824 20.442 25.2335 20.296C27.3753 20.296 29.1086 18.3475 29.1086 15.9453C29.2343 14.0394 29.2919 12.139 29.2866 10.2332C29.2985 8.3327 29.2416 6.43045 29.1159 4.52643ZM13.3204 15.4755V4.98553L20.9134 10.2278L13.3204 15.4755Z" fill="white"/>
</svg>

<svg width="30" height="21" fill="none" xmlns="http://www.w3.org/2000/svg"><path d="M29.116 4.526c0-2.402-1.733-4.334-3.875-4.334C22.34.053 19.38 0 16.358 0h-.943c-3.016 0-5.98.053-8.881.192-2.137 0-3.87 1.943-3.87 4.346-.13 1.9-.186 3.8-.183 5.7-.005 1.901.054 3.803.178 5.707 0 2.402 1.733 4.351 3.87 4.351 3.047.144 6.174.208 9.352.203 3.184.01 6.301-.057 9.352-.203 2.142 0 3.876-1.948 3.876-4.35a83.17 83.17 0 00.178-5.713c.012-1.9-.045-3.803-.171-5.707zM13.32 15.476V4.986l7.593 5.242-7.593 5.248z" fill="#fff"/></svg>
